dist/img/about/about_icon_9.svg

<svg width="50" height="50" viewBox="0 0 50 50" fill="none" xmlns="http://www.w3.org/2000/svg">
<path d="M14.9789 45.9453V35.1167H24.9746V45.9453M14.9789 35.1214L24.9746 45.95M24.9703 35.1214L14.9746 45.95" stroke="#969696" stroke-width="1.5" stroke-linecap="round" stroke-linejoin="round"/>
<path d="M2.47461 33.648L9.05476 21.585L19.7943 16.5633L30.5339 21.585L37.114 33.648M6.90595 32.6743V45.9454M32.6559 32.6743V45.9454M29.5397 17.0727V11.546C29.5397 7.07426 33.124 3.44995 37.5464 3.44995C41.9689 3.44995 45.5532 7.07426 45.5532 11.546V45.95M33.387 13.3357H45.5487M4.7527 45.9454H47.4746M22.1616 24.9299H17.4271V29.7172H22.1616V24.9299Z" stroke="#1C1C1C" stroke-width="1.5" stroke-linecap="round" stroke-linejoin="round"/>
</svg>

<svg width="50" height="50" viewBox="0 0 50 50" fill="none" xmlns="http://www.w3.org/2000/svg"><path d="M14.979 45.945V35.117h9.996v10.828m-9.996-10.824l9.996 10.829m-.005-10.829L14.975 45.95" stroke="#969696" stroke-width="1.5" stroke-linecap="round" stroke-linejoin="round"/><path d="M2.475 33.648l6.58-12.063 10.74-5.022 10.739 5.022 6.58 12.063m-30.208-.974v13.271m25.75-13.27v13.27M29.54 17.073v-5.527c0-4.472 3.584-8.096 8.006-8.096 4.423 0 8.007 3.624 8.007 8.096V45.95M33.387 13.336h12.162M4.753 45.946h42.722M22.162 24.93h-4.735v4.787h4.735V24.93z" stroke="#1C1C1C" stroke-width="1.5" stroke-linecap="round" stroke-linejoin="round"/></svg>ke="#1C1C1C" stroke-width="1.5" stroke-linecap="round" stroke-linejoin="round"/>
</svg>
